X: 36
T: Zhenxin xiangai jie lianli
%%abc-version 2.0
%%abcx-abcm2ps-target-version 5.9.1 (29 Sep 2008)
%%abc-creator hum2abc beta
%%abcx-conversion-date 2013/10/02 07:44:27
%%abc-edited-by Helmut Schaffrath
%%humdrum-veritas 1806979078
%%humdrum-veritas-data 4207501599
%%continueall 1
%%barnumbers 0
L: 1/8
M: 2/4
K: C
c3c [I:setbarnb 1]| 
c3d | 
e> g e d | 
c3e | 
d> c A G | 
E2C C | 
c> c A c | 
G4- | 
G4 | 
A3G | 
c2e3/ d/ | 
c> d A G | 
cE2D | 
C3D | 
E> D G G | 
A G D E | 
C4- | 
C4 |]  



